X:53
T: Der Gluecksjaeger
N: Q0134
O: Mitteleuropa, Deutschland (BRD) , Westfalen, Muensterland
N: Pause am Ende der zweiten Zeile weggelassen. Anhaengsel an der
N: ersten Zeile. Dritte Zeile = Refrain auf sinnfreie Silben.
R: Ballade, Jagd, Flucht, Verfuehrung
M: 4/4
L: 1/16
K: G
D2 | G4G2G2G4G2A2 | G4F2E2D4C2E2 | E6D2D4
G4 | F2A2A2A2A4B2A2 | G4F2E2D4E2F2
G4G4G4z2B2 | A3GF3GA4z2
c2 | B2A2B2c2d4G2A2 | B4A4G4z2
